!!!OTL: NUN SCHUERZ DICH GRETLEIN
!!!ARE: Europa, Mitteleuropa, Deutschland, Sueddeutschland
!!!SCT: E0113
!!!YEM: Copyright 1995, estate of Helmut Schaffrath.
**kern
*ICvox
*Ivox
!! Mixed meters:  3/4; 4/4
*M4/4
*k[b-]
*F:
{4cc
=1
2cc
[4cc
=2
4cc]
4b-
4a
=3
2f
4g
=4
2f}
{4f
=5
2cc
[4cc
=6
4cc]
4b-
4a
=7
4.g
8a
4b-
=8
2a}
{4g
=9
4f
4f
4e
4c
=10
*M3/4
2d
4e
=11
2f}
{4a
=12
2g
4f
=13
4e
2d
=14
[2.c
=15
4c]
4r}
{4cc
=16
2cc
4b-
=17
4a
2g
=18
[2.f
=19
4f]
4r}
==
!!!AGN: erzaehlendes Volks - Lied, Schalk -, Schelmen - Lied, betrogene Liebe, Ballade ?
!!!ONB: ESAC (Essen Associative Code) Database: ERK1
!!!AMT: irregular
!!!AIN: vox
!!!EED: Helmut Schaffrath
!!!EEV: 1.0
*-
